!!!OTL: Canon / zu 4 Stimmen.
!!!OTL-incipit:QUANDO CONVENIUNT CATHARINA
!!!ARE: Europa, Mitteleuropa, Deutschland
!!!SCT: F0342
!!!TXL: @@LAT, @@DE
!!!YEM: Copyright 1995, estate of Helmut Schaffrath.
**kern	**text	**text
*ICvox	*	*
*clefG2	*	*
*M4/4	*	*
*met(c)	*	*
*k[f#]	*	*
*G:	*	*
=1	=1	=1
{2dd	Quan-	Wenn
4dd	-do	ſie
4cc	con	bei-
=2	=2	=2
!LO:TX:a:t=§	!	!
4b	ve-	-ſam-
8a	-ni-	-men
8g	-unt	ſind
4f#	Ca-	Ka-
4f#}	-tha-	-tha-
=3	=3	=3
!LO:TX:a:t=§	!	!
{4g	-ri-	-ri-
8a	-na,	-na,
8b/	Si-	Si-
4a	-bil-	-bil-
8d	-la,	-la,
8d	Ca-	Ka-
=4	=4	=4
!LO:TX:a:t=§	!	!
4g	-mil-	-mil-
4g	-la,	-la,
2r}	.	.
=5	=5	=5
{2dd	ser-	ſpre-
4dd	-mo-	-chen
4cc	-nes	ſie,
=6	=6	=6
4b	fa-	plappern
8a	-ci-	.
8g	-unt	ſie
4f#	vel	bald
4f#}	ab	von
=7	=7	=7
{4g	hoc,	dem,
8a	vel	bald
8b/	ab	von
4a	hac,	der,
8d	vel	bald
8d	ab	von
=8	=8	=8
4g	il-	je-
4g	-la.	-ner.
2r}	.	.
==	==	==
!!!AGN: Jugend - Lied, Geselligkeit, Scherz, Kanon
!!!ONB: ESAC (Essen Associative Code) Database: FINK
!!!AMT: simple quadruple
!!!AIN: vox
!!!EED: Helmut Schaffrath
!!!EEV: 1.0
!!!GTL: Jugendlieder
!!!source: Musikalischer Hausschatz der Deutschen. Eine Sammlung von über 1000 Liedern und Gesängen mit Singstimmen und Klavierbegleitung. Leipzig, Litterarisches Verlags-Haus.
!!!page: 202
!!!URL-scan: https://www.digitale-sammlungen.de/en/view/bsb11144622?page=200,201
!!!ENC: Anna Maria Matuszewska
!!!EEV: 2024/07/30
*-	*-	*-
